src/main/resources/icons/DatabaseIcons/icons/indexUniqueFun.svg

<svg xmlns="http://www.w3.org/2000/svg" width="16" height="16" viewBox="0 0 16 16"><rect id="frame" width="16" height="16" fill="none"/><g fill="none" fill-rule="evenodd"><path fill="#231F20" fill-opacity=".7" d="M7.954 3.387l-.861 1.234c-.171.246-.3.37-.389.37-.144 0-.322-.082-.536-.245-.215-.163-.318-.297-.312-.404.007-.078.062-.159.164-.244l1.276-1.003c.149-.115.221-.19.214-.227-.007-.078-.122-.132-.347-.163l-1.562-.216C5.2 2.434 5 2.317 5 2.135c0-.16.064-.345.193-.553.129-.208.245-.315.347-.321.061-.006.181.04.357.136l1.532.838.173.071c.096-.006.129-.074.103-.207L7.367.55a1.552 1.552 0 0 1-.041-.253C7.312.099 7.521 0 7.953 0c.493 0 .733.099.72.297a6.92 6.92 0 0 1-.051.253l-.327 1.549c-.028.126.003.195.092.207l.183-.071 1.531-.838c.177-.096.296-.142.358-.136.101.006.218.113.347.321.129.208.194.396.194.562 0 .176-.201.29-.603.345l-1.561.216c-.21.031-.322.085-.336.163-.007.042.06.118.204.225l1.275.998c.109.089.163.177.163.26 0 .108-.112.245-.335.41-.224.165-.398.245-.522.238-.121-.006-.25-.132-.386-.378l-.701-1.234-.121-.135-.123.135z"/><path fill="#40B6E0" d="M5 5h4v10H4v-2h3V6.996H5z"/><path fill="#231F20" fill-opacity=".7" d="M13 16c-1.85 0-3-1.04-3-3.066V9h1.5v3.895c0 1.121.575 1.605 1.5 1.605s1.5-.464 1.5-1.556V9H16v3.885C16 14.97 14.85 16 13 16z"/></g></svg>

<svg xmlns="http://www.w3.org/2000/svg" width="16" height="16" viewBox="0 0 16 16">
  <g fill="none" fill-rule="evenodd">
    <path fill="#231F20" fill-opacity=".7" d="M7.954,3.387 L7.093,4.621 C6.922,4.867 6.793,4.991 6.704,4.991 C6.56,4.991 6.382,4.909 6.168,4.746 C5.953,4.583 5.85,4.449 5.856,4.342 C5.863,4.264 5.918,4.183 6.02,4.098 L7.296,3.095 C7.445,2.98 7.517,2.905 7.51,2.868 C7.503,2.79 7.388,2.736 7.163,2.705 L5.601,2.489 C5.2,2.434 5,2.317 5,2.135 C5,1.975 5.064,1.79 5.193,1.582 C5.322,1.374 5.438,1.267 5.54,1.261 C5.601,1.255 5.721,1.301 5.897,1.397 L7.429,2.235 L7.602,2.306 C7.698,2.3 7.731,2.232 7.705,2.099 L7.367,0.55 C7.34,0.423 7.326,0.34 7.326,0.297 C7.312,0.099 7.521,0 7.953,0 C8.446,0 8.686,0.099 8.673,0.297 C8.666,0.34 8.649,0.423 8.622,0.55 L8.295,2.099 C8.267,2.225 8.298,2.294 8.387,2.306 L8.57,2.235 L10.101,1.397 C10.278,1.301 10.397,1.255 10.459,1.261 C10.56,1.267 10.677,1.374 10.806,1.582 C10.935,1.79 11,1.978 11,2.144 C11,2.32 10.799,2.434 10.397,2.489 L8.836,2.705 C8.626,2.736 8.514,2.79 8.5,2.868 C8.493,2.91 8.56,2.986 8.704,3.093 L9.979,4.091 C10.088,4.18 10.142,4.268 10.142,4.351 C10.142,4.459 10.03,4.596 9.807,4.761 C9.583,4.926 9.409,5.006 9.285,4.999 C9.164,4.993 9.035,4.867 8.899,4.621 L8.198,3.387 L8.077,3.252 L7.954,3.387 Z"/>
    <polygon fill="#40B6E0" points="5 5 9 5 9 15 4 15 4 13 7 13 7 6.996 5 6.996"/>
    <path fill="#231F20" fill-opacity=".7" d="M13,16 C11.1508197,16 10,14.9606557 10,12.9344262 L10,9 L11.5,9 L11.5,12.895082 C11.5,14.0163934 12.0754098,14.5 13,14.5 C13.9245902,14.5 14.5,14.0360656 14.5,12.9442623 L14.5,9 L16,9 L16,12.8852459 C16,14.9704918 14.8491803,16 13,16 Z"/>
  </g>
</svg>
